dist/svg/align-left.svg

<!-- Generated by Trend Micro Style Portal -->
<svg version="1.1" xmlns="http://www.w3.org/2000/svg" width="16" height="16" viewBox="0 0 16 16">
  <title>align-left</title>
  <path fill="rgb(34,34,34)" d="M11 5h-9v-2h9zM11 9h-9v2h9zM13 6h-11v2h11zM14 12h-12v2h12z"></path>
</svg>

<svg width="16" height="16" viewBox="0 0 16 16" fill="rgb(34, 34, 34)" xmlns="http://www.w3.org/2000/svg"><title>align-left</title><path d="M11 5H2V3H11V5ZM11 9H2V11H11V9ZM13 6H2V8H13V6ZM14 12H2V14H14V12Z" fill="rgb(34, 34, 34)" fill-opacity="1.00"/></svg>
